icons/devices-24.svg

<svg width="24" height="24" viewBox="0 0 24 24" fill="none" xmlns="http://www.w3.org/2000/svg">
<path d="M1 3.75C1 2.7835 1.7835 2 2.75 2H21.25C22.2165 2 23 2.7835 23 3.75V7.75C23 8.16421 22.6642 8.5 22.25 8.5C21.8358 8.5 21.5 8.16421 21.5 7.75V3.75C21.5 3.61193 21.3881 3.5 21.25 3.5H2.75C2.61193 3.5 2.5 3.61193 2.5 3.75V15.25C2.5 15.3881 2.61193 15.5 2.75 15.5H11.75C12.1642 15.5 12.5 15.8358 12.5 16.25C12.5 16.6642 12.1642 17 11.75 17H10.4629C10.3373 18.2662 9.89885 19.445 9.23971 20.5H11.75C12.1642 20.5 12.5 20.8358 12.5 21.25C12.5 21.6642 12.1642 22 11.75 22H7.74989C7.45578 22 7.18882 21.8281 7.06711 21.5604C6.94541 21.2926 6.99144 20.9784 7.18482 20.7568C8.14891 19.6522 8.78282 18.3751 8.95352 17H2.75C1.7835 17 1 16.2165 1 15.25V3.75Z" fill="#24292F"/>
<path fill-rule="evenodd" clip-rule="evenodd" d="M14 11.75C14 10.7835 14.7835 10 15.75 10H21.25C22.2165 10 23 10.7835 23 11.75V20.25C23 21.2165 22.2165 22 21.25 22H15.75C14.7835 22 14 21.2165 14 20.25V11.75ZM15.75 11.5C15.6119 11.5 15.5 11.6119 15.5 11.75V20.25C15.5 20.3881 15.6119 20.5 15.75 20.5H21.25C21.3881 20.5 21.5 20.3881 21.5 20.25V11.75C21.5 11.6119 21.3881 11.5 21.25 11.5H15.75Z" fill="#24292F"/>
</svg>

<svg xmlns="http://www.w3.org/2000/svg" width="24" height="24" viewBox="0 0 24 24"><path d="M1 3.75C1 2.784 1.784 2 2.75 2h18.5c.966 0 1.75.784 1.75 1.75v4a.75.75 0 0 1-1.5 0v-4a.25.25 0 0 0-.25-.25H2.75a.25.25 0 0 0-.25.25v11.5c0 .138.112.25.25.25h9a.75.75 0 0 1 0 1.5h-1.287c-.126 1.266-.564 2.445-1.223 3.5h2.51a.75.75 0 0 1 0 1.5h-4a.75.75 0 0 1-.565-1.243c.964-1.105 1.598-2.382 1.769-3.757H2.75A1.75 1.75 0 0 1 1 15.25V3.75Z"/><path d="M14 11.75c0-.967.783-1.75 1.75-1.75h5.5c.966 0 1.75.783 1.75 1.75v8.5A1.75 1.75 0 0 1 21.25 22h-5.5A1.75 1.75 0 0 1 14 20.25Zm1.75-.25a.25.25 0 0 0-.25.25v8.5c0 .138.112.25.25.25h5.5a.25.25 0 0 0 .25-.25v-8.5a.25.25 0 0 0-.25-.25Z"/></svg>
